docs/.gitbook/assets/icon-band-aid-16@dark.svg

<svg width="32" height="32" viewBox="0 0 16 16" fill="none" xmlns="http://www.w3.org/2000/svg">
<rect x="0" y="0" width="16" height="16" fill="#181c1f"/>
<path fill-rule="evenodd" clip-rule="evenodd" d="M9.57843 1C8.84908 1 8.14961 1.28973 7.63388 1.80546L1.80546 7.63388L2.33579 8.16421L1.80546 7.63388C1.28973 8.14961 1 8.84908 1 9.57843V10.25C1 12.8734 3.12665 15 5.75 15H6.42157C7.15092 15 7.85039 14.7103 8.36612 14.1945L14.1945 8.36612C14.7103 7.85039 15 7.15092 15 6.42157V5.75C15 3.12665 12.8734 1 10.25 1H9.57843ZM8.69454 2.86612C8.92896 2.6317 9.24691 2.5 9.57843 2.5H10.25C12.0449 2.5 13.5 3.95507 13.5 5.75V6.42157C13.5 6.75309 13.3683 7.07104 13.1339 7.30546L7.30546 13.1339C7.07104 13.3683 6.75309 13.5 6.42157 13.5H5.75C3.95507 13.5 2.5 12.0449 2.5 10.25V9.57843C2.5 9.24691 2.6317 8.92896 2.86612 8.69454L8.69454 2.86612ZM9 6C8.44772 6 8 6.44772 8 7C8 7.55228 8.44772 8 9 8C9.55229 8 10 7.55228 10 7C10 6.44772 9.55229 6 9 6ZM7 8C6.44772 8 6 8.44772 6 9C6 9.55229 6.44772 10 7 10C7.55228 10 8 9.55229 8 9C8 8.44772 7.55228 8 7 8Z" fill="#fff"/>
</svg>

<svg xmlns="http://www.w3.org/2000/svg" width="32" height="32" fill="none" viewBox="0 0 16 16"><path fill="#181c1f" d="M0 0h16v16H0z"/><path fill="#fff" fill-rule="evenodd" d="M9.578 1c-.729 0-1.428.29-1.944.805L1.805 7.634l.53.53-.53-.53A2.75 2.75 0 0 0 1 9.578v.672A4.75 4.75 0 0 0 5.75 15h.672a2.75 2.75 0 0 0 1.944-.806l5.829-5.828A2.75 2.75 0 0 0 15 6.422V5.75A4.75 4.75 0 0 0 10.25 1zm-.883 1.866a1.25 1.25 0 0 1 .883-.366h.672a3.25 3.25 0 0 1 3.25 3.25v.672c0 .331-.132.649-.366.883l-5.829 5.829a1.25 1.25 0 0 1-.883.366H5.75a3.25 3.25 0 0 1-3.25-3.25v-.672c0-.331.132-.649.366-.883zM9 6a1 1 0 1 0 0 2 1 1 0 0 0 0-2M7 8a1 1 0 1 0 0 2 1 1 0 0 0 0-2" clip-rule="evenodd"/></svg>
